X: 2672
T: Bank Of Turf, The
R: jig
M: 6/8
K: Dmajor
dB|:ABA DFA|BAF DFA|dcd ede|fef def|gfg efb|
[1 afe def|efd edB|cdB AdB:|2 afe dcB|AFA efe|dAF Dcd||
|:eAA efg|fdd fga|gfe fed|edB ABd|
eAA efg|fdd fga|gfe dcB|1 cdB Acd:|2 cdB AdB||

